src/icons/conditional-skip-filled.svg

<svg viewBox="0 0 24 24" xmlns="http://www.w3.org/2000/svg"><g fill="none" fill-rule="evenodd"><rect fill="#ffebb7" height="23" rx="4" stroke="#e59c0b" width="23" x=".5" y=".5"/><path d="m17.3333333 16.3333333h1.3333334v-1.3333333h-1.3333334zm-6 0h1.3333334v-1.3333333h-1.3333334zm-5.99999997 0h1.33333334v-1.3333333h-1.33333334zm10.66666667-2.6666666v.6666666 3.3333334h4v-4zm-6 0v.6666666 3.3333334h4v-4zm-6 0v.6666666 3.3333334h4v-4zm8-6.6666667c-2.89466667 0-5.46733333 1.42466667-7.04066667 3.6106667l1.08333334.7786666c1.33266666-1.8513333 3.49866666-3.05599997 5.95733333-3.05599997 1.948 0 3.7053333.76466667 5.0166667 1.99999997h-2.35v1.3333334h4.6666666v-4.6666667h-1.3333333v2.432c-1.5593333-1.49933333-3.67-2.432-6-2.432z" fill="#e59c0b"/></g></svg>

<svg viewBox="0 0 24 24" xmlns="http://www.w3.org/2000/svg"><g fill="none" fill-rule="evenodd"><rect fill="#ffebb7" height="23" rx="4" stroke="#e59c0b" width="23" x=".5" y=".5"/><path d="M17.333 16.333h1.334V15h-1.334zm-6 0h1.334V15h-1.334zm-6 0h1.334V15H5.333zM16 13.667v4h4v-4zm-6 0v4h4v-4zm-6 0v4h4v-4zM12 7a8.666 8.666 0 00-7.04 3.61l1.083.78a7.318 7.318 0 0110.974-1.057h-2.35v1.334h4.666V7H18v2.432A8.634 8.634 0 0012 7z" fill="#e59c0b"/></g></svg>
